X:545
T:Mo Mh\`airi Mhin Mheall Shuileach
R:Slow Strathspey
B:The Athole Collection
M:C|
L:1/8
Q:1/4=140
K:A Minor
c|:A<B e2 e>d B<g|G<G d>G B>AG>B|A<B e2 e>dB<g|a>eg>B A2 A<B:|
|:A<aa<b a>gg>a|b>aa>g g>ee>g|d>eg>a b>ag>b|a<e g>B A2 AB:|

